X: 022
Q: "Slowish"
M: C
L: 1/8
K: A
V: 1
c/B/ |\
c/d/ |\
ecca ee (f/e/).d/.c/ | ecca Tf2 fg/a/ | ecca ee (f/e/).d/.c/ | d>Bc>A {G}F2 ~Fc/d/ |
ecca ee (f/e/).d/.c/ | ecca Tf2 f>g | (3agf (3efg (3aed (3cBA | {c}d>Bc>A {G}~F2 F |]
V: 2 clef=bass middle=d
z | A2d2 A2A2 | A2c2  e2E2 | A2d2 c2A2 | d2e2 A2az |
    A2d2 c2A2 | A2d^d e2Ez | a2e2 c2d2 | e2E2 A2a ||
z | A2a2 c2a2 | A2a2  d2D2 | A2a2 A2c2 | GABc d2D2 |
    A2a2 A2a2 | A2c2  dDdc | A3 e a2A2 | GABc d2D |]


